X: 1652
T: Sabâ Örnek-öz (2)
C: Rûhî Ayangil
O: Turkey
F: http://compmusic.upf.edu/node/140
N: saba--ornek-oz--yuruksemai_ii--1--ruhi_ayangil
N: makam= saba
N: form= ornek-oz
N: usul= yuruksemai_ii = 6/8
M: 6/8
L: 1/16
K: C _2/4B _3/4d  
Q: 1/4=84
%%MIDI tuningsystem comma53
G2c3ed2 c3_1/4B  | d6_1/4B6  | c2B3dc2 B3G  | \
w:   |   |   | 
A6_1/4Bc d4  | efg3fef g3f  | 
w:   |   | 
a2g3fed e4  | c_7/8def gfed c_1/4Bcd  | \
w:   |   | 
c2_1/4B4A6  | 
w:   | 
|


